X:1
T:Nunc dimittis
T:Charles Wood
T:Copyright © 2006 by the Choral Public Domain Library (http://www.cpdl.org) Edition may be freely distributed, duplicated, performed, or recorded. Please report errors to robertnottingham6@hotmail.com
T:for unaccompanied men’s voices
T:Charles Wood
T:MAGNIFICAT and NUNC DIMITTIS in G
T:Nunc dimittis
T:Copyright © 2006 by the Choral Public Domain Library (http://www.cpdl.org) Edition may be freely distributed, duplicated, performed, or recorded. Please report errors to robertnottingham6@hotmail.com
T:Copyright © 2006 by the Choral Public Domain Library (http://www.cpdl.org) Edition may be freely distributed, duplicated, performed, or recorded. Please report errors to robertnottingham6@hotmail.com
T:Copyright © 2006 by the Choral Public Domain Library (http://www.cpdl.org) Edition may be freely distributed, duplicated, performed, or recorded. Please report errors to robertnottingham6@hotmail.com
T:Copyright © 2006 by the Choral Public Domain Library (http://www.cpdl.org) Edition may be freely distributed, duplicated, performed, or recorded. Please report errors to robertnottingham6@hotmail.com
T:Copyright © 2006 by the Choral Public Domain Library (http://www.cpdl.org) Edition may be freely distributed, duplicated, performed, or recorded. Please report errors to robertnottingham6@hotmail.com
T:Copyright © 2006 by the Choral Public Domain Library (http://www.cpdl.org) Edition may be freely distributed, duplicated, performed, or recorded. Please report errors to robertnottingham6@hotmail.com
T:Copyright © 2006 by the Choral Public Domain Library (http://www.cpdl.org) Edition may be freely distributed, duplicated, performed, or recorded. Please report errors to robertnottingham6@hotmail.com
T:Copyright © 2006 by the Choral Public Domain Library (http://www.cpdl.org) Edition may be freely distributed, duplicated, performed, or recorded. Please report errors to robertnottingham6@hotmail.com
T:Copyright © 2006 by the Choral Public Domain Library (http://www.cpdl.org) Edition may be freely distributed, duplicated, performed, or recorded. Please report errors to robertnottingham6@hotmail.com
T:Copyright © 2006 by the Choral Public Domain Library (http://www.cpdl.org) Edition may be freely distributed, duplicated, performed, or recorded. Please report errors to robertnottingham6@hotmail.com
T:Copyright © 2006 by the Choral Public Domain Library (http://www.cpdl.org) Edition may be freely distributed, duplicated, performed, or recorded. Please report errors to robertnottingham6@hotmail.com
T:Copyright © 2006 by the Choral Public Domain Library (http://www.cpdl.org) Edition may be freely distributed, duplicated, performed, or recorded. Please report errors to robertnottingham6@hotmail.com
T:Copyright © 2006 by the Choral Public Domain Library (http://www.cpdl.org) Edition may be freely distributed, duplicated, performed, or recorded. Please report errors to robertnottingham6@hotmail.com
T:Copyright © 2006 by the Choral Public Domain Library (http://www.cpdl.org) Edition may be freely distributed, duplicated, performed, or recorded. Please report errors to robertnottingham6@hotmail.com
T:Copyright © 2006 by the Choral Public Domain Library (http://www.cpdl.org) Edition may be freely distributed, duplicated, performed, or recorded. Please report errors to robertnottingham6@hotmail.com
T:Copyright © 2006 by the Choral Public Domain Library (http://www.cpdl.org) Edition may be freely distributed, duplicated, performed, or recorded. Please report errors to robertnottingham6@hotmail.com
C:Charles Wood
Z:Copyright © 2006 by the Choral Public Domain Library (http://www.cpdl.org)
Z:Edition may be freely distributed, duplicated, performed, or recorded.
Z:Please report errors to robertnottingham6@hotmail.com
%%score [ 1 2 3 ]
L:1/8
M:4/4
K:C
V:1 treble nm="ALTO" snm="A."
V:2 treble-8 transpose=-12 nm="TENOR" snm="T."
V:3 bass nm="BASS" snm="B."
V:1
 z8 |[M:4/2][Q:1/4=120]"^Allegro" z8!f! D8 | G12 A4 | B6 A2 G4 G4 | ^F8 G4 F4 | E6 E2 ^F4 G4 | %6
w: |My|soul doth|mag- ni- fy the|Lord: and my|spi- rit hath re-|
 A4 G2 G2 ^F4 G4 | (G4 ^F4) G4 z4 | z8 z4!mf!"^DEC." ^F4 | G8 A4 A4 | (B6 A2) G4 ^F4 | %11
w: joi- ced in God my|Sa- * viour.|For|he hath re-|gard- * ed the|
 (G6 ^F2 E4) D4 | ^C4 E2 E2 (A4 G4) | ^F4 F4 z8 | z8"^CAN." E4 ^F4 | G6 G2 A4 A4 | (B6 A2) G4 ^F4 | %17
w: low- * * li-|ness of his hand- *|maid- en.|For be-|hold from hence- forth|all _ gen- er-|
 (G6 ^F2) E4 D4 | (^C4 E4) (A4 G4) | ^F4 F4 z4!f!"^FULL" D4 | D4 E8 ^F4 | ^F4 G8 G4 | %22
w: a- * tions shall|call _ me _|bless- ed. For|he that is|might- y hath|
 A6 A2 A4 (B2 A2) | G12 ^F4 |"^dim." (E8 ^D4) E4 | E8 (^F4 G4) |!p! ^F8"^CAN.""^dolce" G4 A4 | %27
w: mag- ni- fi- ed _|me: and|ho- * ly|is his _|Name. And his|
 B4 G4 E4 ^F4 | G4 ^F4 E4 D2 D2 | D8 E8- | E4 G2 G2 (G4 ^F4) | G12 z4 |!f!"^FULL" ^F6 G2 A4 A4 | %33
w: mer- cy is on|them that fear him through-|out all|_ gen- er- a- *|tions.|He hath shew- ed|
 A8 G4 ^F4 | E4 A8 A4 | D3 D D2 D2 E4 (3^F2 F2 F2 | A4 B4 G4 ^F4 | E6 E2 ^F8 | %38
w: strength with his|arm, he hath|scat- ter- ed the proud in the im-|ag- in- a- tion|of their hearts.|
 z4!f!"^DEC." A4 G4 G4 | ^F8 B,8 | ^A,4 ^C4 ^F4 E4 | D4!ff! ^F4 F8- | F4 ^F4 (B8- | B4 A4) G4 B4 | %44
w: He hath put|down the|migh- ty from their|seat: and hath|_ ex- al-|* * ted the|
 (B4 ^A2 ^G2) A4 A4 | B8!mf!"^CAN." D4 D4 | D4 E8 ^F4 | ^F4 G8 G4 |!>(! (A12!>)! B2 A2) | %49
w: hum- * * ble and|meek. He hath|fill- ed the|hun- gry with|good _ _|
 G8!p!"^DEC." G4 ^F4 | E6 E2 ^D4 E4 | E8 ^F4 G4 | ^F8"^CAN." G4"^dolce" A4 | (B4 G4) E4 ^F4 | %54
w: things: and the|rich he hath sent|emp- ty a-|way. He re-|mem- * b’ring His|
 (G4 ^F4) E4 D4 | G4 ^F2 F2 E4 D4 | (D4 B,4) ^C8 | D8 z8 | z8!mf!"^DEC." G4 ^F4 | E6 E2 A4 G4 | %60
w: mer- * cy hath|hol- pen his ser- vant|Is- * ra-|el:|as he|prom- is- ed to|
 ^F4 E4 D4 D4 | (G4 ^F4 E8- | %62
w: our fore- fa- thers,|A- * *|
 E4)"^rall. e dim.  .  .  .  .  .  .  .  .  .  .  .  .  .  .  .  .  .  .  .  .  .  .  .  .  .   ." (^F2 G2) A4 G2 G2 | %63
w: * bra- * ham and his|
 G4 G4 (G4 ^F4) | !fermata!G16 ||"^a tempo""^FULL" z4!f! G8 ^F4 | (G6 A2) B4 B,4 | (C4 D4 E8- | %68
w: seed for ev- *|er.|Glo- ry|be _ to the|Fa- * *|
 E4 D4) D8- | D4 G4 (G2 ^F2) (G2 A2) | (B8 c4) B4 | A6 A2 (B4 A4 | G8- G2 ^F2) (E2 F2) | D4 z4 z8 | %74
w: * * ther,|_ and to _ the _|Son: _ and|to the Ho- *|* * * ly _|Ghost;|
 z4 B8 A4 | G6 G2 G4 G4 | (G6 ^F2) E4 (D2 ^C2) | (D4 ^F4) (G4 B4) | (A4 ^F4 B4) A4 | %79
w: As it|was in the be-|gin- * ning, is _|now _ and _|ev- * * er|
 (G4 A2 B2 A4 G4) | ^F8 z8 |!ff! G8 D4 D4 | (E8 G8) | (A12 G4) | ^F8 (c8 | B8 A8- | A4 G4) G8 | %87
w: shall _ _ _ _|be:|world with- out|end. _|A- *|men, A-||* * men,|
"^rall. e dim.  .  .  .  .  .  .  .  .  .  .  ." (G8 ^F8) | !fermata!G16 |] %89
w: A- *|men.|
[M:4/2]!pp!"^Moderato"[Q:1/4=100] B,12 z4 | z16 | z8 z4!p! B,4 |!>(! (E4 D4) (C4!>)! D4) | %93
w: Lord||de-|part _ in _|
 B,4!pp! G4 G8- | G16- | G8!>(! G8!>)! | G16 | z16 | z8"^DEC."!p! ^F8 | (G4 ^F4) E4 F4 | %100
w: peace, de- part|_|* in|peace.||have|seen _ thy sal-|
 (G4 ^F4) D4 z4 | z16 | z8 z4!p!"^CAN." ^D4 | (E4 ^D4 ^C4) D4 | G6 ^F2 (E4 F4) | ^D8 D8 | %106
w: va- * tion,||be-|fore _ _ the|face of all _|peo- ple;|
"^DEC." z4!p!!<(! ^F4 F4 B,4 | G12!<)! G4 |!>(! (c4 B4) A4 B4 | ^G4!>)! G4 z8 | %110
w: To be a|light to|light- * en the|Gen- tiles:|
 z4"^CAN." E2"^cresc." E2 ^G4 B4 |!f! A16- | A4 G4 ^F4 E4 |!>(! (D8 E4) ^F4 | %114
w: and to be the|glo-|* ry of thy|peo- * ple|
 (G4 ^F4) (E4!>)! F4) |!p! D16 ||!f!"^FULL""^Allegro"[Q:1/4=120] D8 D8 | G8 ^F4 E4 | G8 D8 | %119
w: Is- * ra- *|el.|Glo- ry|be to the|Fa- ther,|
 z4 G4 ^F4 E4 | G6 G2 ^F4 E4 | G8 (D4 E4) |"^sempre" ^F8!f! D4 D4 | E4 E4 ^F4 F4 | %124
w: and to the|Son: and to the|Ho- ly _|Ghost; As it|was in the be-|
 (G6 A2) B4 (A2 G2) | ^F6 G2 A4 (G2 F2) | E4 E8 D4 | ^C4 E4 (A4 G4) | ^F8"^DEC." !>!G8- | %129
w: gin- * ning, is _|now, and ev- er _|shall be, and|ev- er shall _|be: world|
 G4 G4 G8 | A8"^CAN." !>!A8- | A4 A4 A8 | B4 z4"^FULL"!ff! (!>!B8- | B4 A4 G8- | G4 ^F4 E8- | %135
w: _ with- out|end, world|_ with- out|end. A-|||
 E4 ^F4) (D4 G4) | (G8 ^F4 E4 | ^F16) | !fermata!G16 |] %139
w: * * men, _|A- * *||men.|
"^SOURCE: The Year Book Press Series of Anthems and Church Music, 1911COMPOSER: Charles Wood (1866-1926)Typeset from Year Book Press edition by Robert G. Nottingham 19/6/06Revision corrected the following errors:Last note of bar 66 of the Magnificat, bass should be a G, not an A.Last note of bar 43 of the Nunc dimittis, bass should be C sharp, not CAdditionally, some minor typographical changes were made." x16 |] %140
w: |
V:2
 z8 |[M:4/2]"^Instrument change" z8!f! B,8 | (D8 E4) ^F4 | G4 D4 D4 ^C4 | D8 G,4 B,4 | %5
w: |My|soul _ doth|mag- ni- fy the|Lord: and my|
 C6 C2 C4 E4 | (D2 C2) (B,2 C2) A,4 G,4 | A,8 B,4!mf!"^DEC." G,4 | (B,8 C8) | (D4 E8) ^F4 | %10
w: spi- rit hath re-|joiced _ in _ God my|Sa- viour. For|he _|hath _ re-|
 (G4 ^F4) E4 ^D4 | (E4 =D4 ^C4) B,4 | A,4 ^C2 B,2 (A,4 B,2 C2) | D4 D4"^CAN." A,6 A,2 | B,8 C8 | %15
w: gard- * ed the|low- * * li-|ness of his hand- * *|maid- en. For be-|hold from|
 (D4 E8) ^F4 | (G4 ^F4) E4 ^D4 | (E4 =D4) ^C4 B,4 | (A,4 ^C2 B,2) (A,4 B,2 C2) | %19
w: hence- * forth|all _ gen- er-|a- * tions shall|call _ _ me _ _|
 D4 D4 z4!f!"^FULL" A,4 | B,8 C4 C4 | (D6 C2) B,4 E4 | E4 ^D4 ^C4 D4 | E12 =D4 | %24
w: bless- ed. For|he that is|might- * y hath|mag- ni- fi- ed|me: and|
"^dim." (C4 B,4 A,4) B,4 | (C4 B,4) (^D4 E4) |!p! ^D8"^CAN.""^dolce" E4 E4 | =D4 B,4 C4 C4 | %28
w: ho- * * ly|is _ his _|Name. And his|mer- cy is on|
 D6 C2 B,4 A,2 A,2 | (B,4 A,4) G,8- | G,4 G,2 G,2 A,8 | B,12 z4 |!f!"^FULL" D6 D2 D4 E4 | %33
w: them that fear him through-|out _ all|_ gen- er- a-|tions.|He hath shew- ed|
 (^F6 E2) D4 D4 | ^C8 D4 C4 | B,3 B, B,2 B,2 ^C4 (3D2 D2 D2 | E4 D4 ^C4 D4 | D4 ^C4 D8 | %38
w: strength _ with his|arm, he hath|scat- ter- ed the proud in the im-|ag- in- a- tion|of their hearts.|
!f!"^DEC." A,8 B,4 ^C4 | D12 E4 | ^F6 E2 D4 ^C4 | D8 z4!ff! ^C4 | (D6 ^C2) (B,4 A,4) | %43
w: He hath put|down the|might- y from their|seat: and|hath _ ex- *|
 (G,4 B,4) E4 D4 | ^C8 C4 C4 | B,8!mf!"^CAN." D4 D4 | B,8 C4 C4 | (D6 C2) B,4 E4 | %48
w: al- * ted the|hum- ble and|meek. He hath|fill- ed the|hun- * gry with|
!>(! (E4 ^D4 ^C4!>)! D4) | E8!p!"^DEC." E4 =D4 | C4 B,4 A,4 B,4 | (C4 B,4) ^D4 E4 | %52
w: good _ _ _|things: and the|rich he hath sent|emp- * ty a-|
 ^D8"^CAN." E4"^dolce" E4 | (=D4 B,4) C4 C4 | (D6 C2) B,4 A,4 | D4 D2 C2 B,4 A,4 | G,12 G,4 | %57
w: way. He re-|mem- * b’ring His|mer- * cy hath|hol- pen his ser- vant|Is- ra-|
 ^F,8!mf!"^DEC." D4 C4 | B,6 B,2 E4 D4 | C4 B,4 A,4 A,4 | (D4 C4 B,4 A,4 | G,12) (A,2 B,2) | %62
w: el: as he|prom- is- ed to|our fore- fa- thers,|A- * * *|* bra- *|
 (C6"^rall. e dim.  .  .  .  .  .  .  .  .  .  .  .  .  .  .  .  .  .  .  .  .  .  .  .  .  .   ." B,2) A,4 B,4 | %63
w: ham _ and his|
 (E2 D2) (C2 B,2) A,8 | !fermata!B,16 ||"^a tempo" z16 |"^FULL" z4!f! E8 D4 | C8 C4 C4 | %68
w: seed _ for _ ev-|er.||Glo- ry|be to the|
 (C6 B,2 A,4 G,2 ^F,2) | G,4 B,4 C4 E4 | D4 B,4 E4 D4 | (C4 D2 E2 D4) C4 | (B,8 ^C4) z4 | D8 A,8 | %74
w: Fa- * * * *|ther, and to the|Son: and to the|Ho- * * * ly|Ghost; _|As it|
 B,6 B,2 D4 D4 | E8 E4 D4 | ^C8 G8 | (^F8 E8- | E4) D4 D4 D4 | (D8 ^C8) | D4 A,4 ^F,4 (B,2 A,2) | %81
w: was in the be-|gin- ning, is|now, is|now, _|_ and ev- er|shall _|be: world with- out _|
 G,4!ff! (G,8 ^F,4 | G,6 A,2) B,4 B,4 | C4 D4 (E8- | E4 D8) D4 | D4 (G,4- G,2 ^F,2 G,2 A,2 | %86
w: end. A- *|* * men, world|with- out end.|_ _ A-|men, A- * * * *|
 B,8) (C4 B,4) |"^rall. e dim.  .  .  .  .  .  .  .  .  .  .  ." (A,4 E4 D4 C4) | !fermata!B,16 |] %89
w: * men, _|A- * * *|men.|
[M:4/2]!pp! D,12!p!"^tranquillo" D4 | C4 B,4 A,4 B,4 | G,4 G,12- |!>(! G,16-!>)! | %93
w: Lord now|lett- est thou thy|ser- vant|_|
 G,4 z4 z4!p! D4 | (C4 B,4) (A,4 B,4) | (E4 D4) (C4!>(! D4)!>)! | B,16 | z16 | %98
w: * ac-|cord- * ing _|to _ Thy _|word.||
 z4"^DEC."!p! A,4 D4 ^C4 | (B,4 A,4) G,4 A,4 | (B,4 A,4) ^F,4!mf!"^CAN." A,4 | D8 E4 D4 | %102
w: mine eyes have|seen _ thy sal-|va- * tion, Which|thou hast pre-|
 (C4 D4) B,8- | B,16- | B,16- | B,16 |"^DEC." z4!p!!<(! ^D4 D4 D4 | E12!<)! E4 | %108
w: par- * ed|_|||To be a|light to|
!>(! (E4 D4) C4 D4 | B,4!>)!"^CAN." B,4"^cresc." B,6 B,2 | E12 E4 |!f! (E4 D4 C4 D4 | %112
w: light- * en the|Gen- tiles: and to|be the|glo- * * *|
 E4) D4 C6 B,2 |!>(! (A,4 B,8) A,4 | (B,4 D8)!>)! ^C4 |!p! D16 ||!f!"^FULL" B,8 B,8 | B,4 C8 G,4 | %118
w: * ry of thy|peo- * ple|Is- * ra-|el.|Glo- ry|be to the|
 (D4 C4) B,8 | z4 G,4 G,4 G,4 | D6 G,2 G,4 G,4 | (D4 C4) B,8 |"^sempre" A,8!f! D4 D4 | %123
w: Fa- * ther,|and to the|Son: and to the|Ho- * ly|Ghost; As it|
 C6 B,2 A,4 (B,2 A,2) | G,4 G,4 z4 D4 | C6 B,2 A,4 (B,2 A,2) | (G,6 A,2) B,4 (A,2 B,2) | %127
w: was in the be- *|gin- ning, is|now, and ev- er _|shall _ be, and _|
 ^C4 C4 C8 | D8"^DEC." !>!B,8- | B,4 B,4 (E4 D4) | C8"^CAN." !>!C8- | C4 C4 (B,4 ^C4) | ^D4 z4 z8 | %133
w: ev- er shall|be: world|_ with- out _|end, world|_ with- out _|end.|
!ff!"^FULL" (E12 D4 | C12 B,4 | A,12) G,4 | (A,16- | A,8 D4 C4) | !fermata!B,16 |] %139
w: A- *||* men,|A-||men.|
"^Instrument change" x16 |] %140
w: |
V:3
 z8 |[M:4/2]"^Instrument change" z8!f! G,8 | (B,8 C4) (B,2 A,2) | G,4 ^F,4 E,4 E,4 | D,8 E,4 D,4 | %5
w: |My|soul _ doth _|mag- ni- fy the|Lord: and my|
 C,4 A,,4 A,4 G,4 | ^F,4 G,2 G,2 D,4 E,4 | (C,4 D,4) G,,4 z4 | z4!mf!"^DEC." G,4 A,8 | %9
w: spi- rit hath re-|joi- ed in God my|Sa- * viour.|For he|
 (B,4 C8) D4 | G,8 A,4 B,4 | (E,8 ^F,4) G,4 | A,4 A,2 G,2 (^F,4 E,4) | D,4 D,4 z8 | %14
w: hath _ re-|gard- ed the|low- * li-|ness of his hand- *|maid- en.|
"^CAN." z4 G,4 A,6 A,2 | (B,4 C8) D4 | G,8 A,4 B,4 | E,8 ^F,4 G,4 | (A,6 G,2) (^F,4 E,4) | %19
w: be- hold from|hence- * forth|all gen- er-|a- tions shall|call _ me _|
 D,4 D,4!f!"^FULL" D,8 | G,8 A,4 A,4 | (B,6 A,2) G,4 G,4 | ^F,6 F,2 G,4 F,4 | E,8 (^F,4 G,4) | %24
w: bless- ed. For|he that is|might- * y hath|mag- ni- fi- ed|me: and _|
"^dim." (A,4 G,4 ^F,4) G,4 | (A,4 G,4) (^F,4 E,4) |!p! B,8"^CAN.""^dolce" E,4 ^F,4 | %27
w: ho- * * ly|is _ his _|Name. And his|
 G,6 G,2 A,4 A,4 | B,6 A,2 G,4 ^F,2 F,2 | (G,6 ^F,2) (E,4 D,4) | C,4 E,4 D,8 | G,,12 z4 | %32
w: mer- cy is on|them that fear him through-|out _ all _|gen- er- a-|tions.|
!f!"^FULL" D,6 E,2 ^F,4 A,4 | (D4 A,4) B,4 G,4 | A,8 ^F,4 F,4 | G,3 G, ^F,2 F,2 E,4 (3D,2 D,2 D,2 | %36
w: He hath shew- ed|strength _ with his|arm, he hath|scat- ter- ed the proud in the im-|
 ^C,4 D,4 E,4 (^F,2 G,2) | A,4 A,,4 D,8 | z4!f!"^DEC." ^F,4 E,4 E,4 | (B,4 A,4) G,8 | %40
w: ag- in- a- tion _|of their hearts.|He hath put|down _ the|
 ^F,4 F,4 ^G,4 ^A,4 | B,8 z4!ff! ^A,4 | (B,4 =A,4) (G,4 ^F,4) | E,8 E,4 E,4 | ^F,8 F,4 F,4 | %45
w: might- y from their|seat: and|hath _ ex- *|al- ted the|hum- ble and|
 B,,8!mf!"^CAN." D,4 D,4 | G,8 A,4 A,4 | (B,6 A,2) G,4 G,4 |!>(! (^F,8 G,4!>)! F,4) | %49
w: meek. He hath|fill- ed the|hun- * gry with|good _ _|
 E,4!p!"^DEC." (E,4 ^F,4) G,4 | A,4 G,4 ^F,4 G,4 | (A,4 G,4) ^F,4 E,4 | %52
w: things: and _ the|rich he hath sent|emp- * ty a-|
 B,8"^CAN." E,4"^dolce" ^F,4 | G,8 A,4 A,4 | (B,6 A,2) G,4 ^F,4 | B,4 B,2 A,2 G,4 ^F,4 | E,8 E,8 | %57
w: way. He re-|mem- b’ring His|mer- * cy hath|hol- pen his ser- vant|Is- ra-|
 D,8 z8 |!mf!"^DEC." G,4 ^F,4 E,6 E,2 | A,4 G,4 ^F,4 E,4 | D,4 D,4 (G,4 ^F,4 | E,6 D,2 C,6) B,,2 | %62
w: el:|as he prom- is-|ed to our fore-|fa- thers. A- *|* * * bra-|
 A,,4"^rall. e dim.  .  .  .  .  .  .  .  .  .  .  .  .  .  .  .  .  .  .  .  .  .  .  .  .  .  ." A,2 G,2 (^F,4 G,4 | %63
w: ham and his seed _|
 C,4) A,,4 D,8 | !fermata!G,,16 ||"^FULL"!f!"^a tempo" G,8 D,8 | E,8 G,4 G,4 | (A,12 G,4) | %68
w: _ for ev-|er.|Glo- ry|be to the|Fa- *|
 ^F,4 G,4 C4 C4 | (B,8 A,8- | A,4) G,4 G,4 G,4 | (G,8 ^F,8 | G,4 E,4) (A,4 G,4) | ^F,4 D,8 ^C,4 | %74
w: ther, and to the|Son: _|_ and to the|Ho- *|* * ly _|Ghost; As it|
 D,6 E,2 ^F,4 F,4 | (G,4 A,4) B,4 B,,4 | (B,,4 A,,8) A,,4 | (A,4 D,4- D,2 ^C,2) (D,2 E,2) | %78
w: was in the be-|gin- * ning, is|now, _ is|now, _ _ _ amd _|
 (^F,8 G,4) F,4 | (E,8 ^F,4 E,4) | (D,8- D,2 E,2 D,2 =C,2 | B,,4) z4 z8 | z4!ff! (E,8 D,4 | %83
w: ev- * er|shall _ _|be: _ _ _ _|_|world _|
 C,6) C,2 C8 | (C6 B,2 A,4 G,2 ^F,2 | G,4) (B,,4 C,4 E,4 | D,4 B,,4) (E,4 D,4) | %87
w: _ with- out|end. _ _ _ _|_ A- * *|* * men, _|
"^rall. e dim.  .  .  .  .  .  .  .  .  .  .  ." (C,8 D,8) | !fermata!G,,16 |] %89
w: A- *|men.|
[M:4/2]!pp! G,,12 z4 | z16 | z8 z4!p! D,4 |!>(! (C,4 B,,4) (A,,4!>)! B,,4) | E,4 z4 z4!p! B,,4 | %94
w: Lord||de-|part _ in _|peace ac-|
 (E,4 D,4) (C,4 D,4) | (C,4 B,,4) (A,,4!>(! B,,4)!>)! | G,,16 |!p!"^DEC." (G,4 ^F,4) (E,4 F,4) | %98
w: cord- * ing _|to _ thy _|word.|For _ mine _|
 D,16- | D,16- | D,12 z4 | z16 | z8 z4!p!"^CAN." ^F,4 | (G,4 ^F,4 E,4) F,4 | E,4 ^D,4 (^C,4 D,4) | %105
w: eyes|_|||be-|fore _ _ the|face of all _|
 B,,8 B,,8 | z8"^DEC." z4!p!!<(! B,4 | B,4 E,4 C6 B,2!<)! | A,8!>(! A,4 D,4 | E,4!>)! E,4 z8 | %110
w: peo- ple;|To|be a light to|light- en the|Gen- tiles:|
 z4"^CAN." ^G,2"^cresc." G,2 B,4 D4 |!f! (C4 B,4 A,4 B,4 | C4) B,4 A,4 G,4 |!>(! (^F,4 G,8) F,4 | %114
w: and to be the|glo- * * *|* ry of thy|peo- * ple|
 E,8!>)! A,8 |!p! D,16 ||!f!"^FULL" G,8 ^F,8 | E,8 D,4 C,4 | (B,,4 A,,4) G,,8 | z4 E,4 D,4 C,4 | %120
w: Is- ra-|el.|Glo- ry|be to the|Fa- * ther,|and to the|
 B,,6 E,2 D,4 C,4 | (B,,4 A,,4) G,,8 | D,8 z8 |"^sempre" z8!f! D,4 D,4 | E,6 ^F,2 G,4 (F,2 G,2) | %125
w: Son: and to the|Ho- * ly|Ghost;|As it|was in the be- *|
 A,4 A,4 z4 D,4 | (E,6 ^F,2 G,4) (F,2 G,2) | A,6 G,2 (^F,4 E,4) | D,8"^DEC." !>!E,8- | %129
w: gin- ning, is|now, _ _ and _|ev- er shall _|be: world|
 E,4 D,4 (C,4 B,,4) | A,,4"^CAN." (!>!A,8 G,4 | ^F,4) E,4 (^D,4 ^C,4) | B,,4"^FULL"!ff! (B,8 A,4 | %133
w: _ with- out _|end, world _|_ with- out _|end. A- *|
 G,4 ^F,4 E,8- | E,4 D,4 C,8- | C,4 A,,4) (B,,4 E,4) | (C,16 | D,16) | !fermata!G,,16 |] %139
w: ||* * men, _|A-||men.|
"^Instrument change" x16 |] %140
w: |

